X: 1096
T: The Man Who Died and Rose Again
R:double jig
N:"collected by P.Tuohy"
B:O'Neill's 1096
Z:Transcribed by henrik.norbeck@mailbox.swipnet.se
M:6/8
L:1/8
K:G
GBA G2A|BGe e2d|GBA G2B|AFD AFD|
GBA G2A|BAB dcd|edB edB|AFD DFD:|
gef g2a|bge e2f|gef g2b|afd dcd|
GFG AGA|BAB dcd|edB edB|AFD DFD:|


